X: 38033
T: Spider's
R: reel
M: 4/4
K: Adorian
|:A2eB AGED|EGGE G2EG|A2eB AGED|EGGE ABcB|
A2eB AGED|EGGE G2Bd|e2de A2GA|B2AB GEEG:|
|:A2GA BddB|dege a2ga|b2ab geed|(3Bcd eg BAAG|
A2GA BddB|dege a2ga|b2ab geed|(3Bcd eg BA A2:|

